X:1
T:The Cherry Tree 
M:3/4
L:1/4
K:Db
A | ee(3e/f/e/ | (c3/4B//)Af | ee(e/c/) | e2(c/B/) |
w:When Jo-seph was_ an old_ man, an old man was_ he, He_
A3/2c/B/A/ | FE(E/F/) | (A3/2E/)A/B/ | c2(c/B/) |
w:mar-ried Vir-gin Ma-ry, the_ Queen of Gal-i-lee, He_
A3/2c/B/A/ | FE(3E/F/A/ | (A3/2E/)(c3/4B//) | A2||
w:mar-ried Vir-gin Ma-ry, the__ Queen of Gal-i-lee.
